X:259
T:score6
L:1/8
Q:1/4=96
M:1/8
I:linebreak $
K:F
 (A |[M:6/8] Bag d2) (e | gfd c2) (A | AcB G2) (B | d3 c2) (A |$ Bag d2) (e | gfA e2) (d | %7
 cEF A2 G |[M:5/8] F3-) F z |] %9
